icons/op-menu-24.svg

<svg xmlns="http://www.w3.org/2000/svg" width="24" height="24" viewBox="0 0 24 24"><path d="M4 4h4v4H4V4Zm6 0h4v4h-4V4Zm6 0h4v4h-4V4ZM4 10h4v4H4v-4Zm6 0h4v4h-4v-4Zm6 0h4v4h-4v-4ZM4 16h4v4H4v-4Zm6 0h4v4h-4v-4Zm6 0h4v4h-4v-4Z"/></svg>

<svg width="24" height="24" viewBox="0 0 24 24" fill="none" xmlns="http://www.w3.org/2000/svg">
<path d="M4 4H8V8H4V4ZM10 4H14V8H10V4ZM16 4H20V8H16V4ZM4 10H8V14H4V10ZM10 10H14V14H10V10ZM16 10H20V14H16V10ZM4 16H8V20H4V16ZM10 16H14V20H10V16ZM16 16H20V20H16V16Z" fill="black"/>
</svg>
